icons/dropbox-line.svg

<svg viewBox="0 0 24 24" fill="currentColor" xmlns="http://www.w3.org/2000/svg">
    <path d="M8.65039 17.2607L12.0422 19.4216L15.434 17.2607L17.2942 18.4457L12.0422 21.7916L6.79021 18.4457L8.65039 17.2607ZM7.77356 8.98007L10.1669 7.42738L7.74124 5.85351L5.28562 7.36988L7.77356 8.98007ZM9.61315 10.1706L12.0045 11.7183L14.3953 10.1709L12.0042 8.61946L9.61315 10.1706ZM13.845 12.9095L16.2689 14.4782L18.7187 12.9761L16.2335 11.3636L13.845 12.9095ZM12.0042 6.2354L16.2413 3.48657L22.4656 7.3302L18.073 10.1731L22.4669 13.024L16.2401 16.8419L12.0045 14.1006L7.76898 16.8419L1.54004 13.0241L5.93528 10.1727L1.54332 7.3302L7.7677 3.48657L12.0042 6.2354ZM13.8415 7.42749L16.2349 8.9804L18.7233 7.36988L16.2677 5.85349L13.8415 7.42749ZM10.164 12.9095L7.77487 11.3632L5.2889 12.976L7.73997 14.4783L10.164 12.9095Z"/>
</svg>

<svg xmlns="http://www.w3.org/2000/svg" viewBox="0 0 24 24">
    <g>
        <path fill="none" d="M0 0h24v24H0z"/>
        <path d="M8.646 17.26l3.392 2.162 3.392-2.161 1.86 1.185-5.252 3.346-5.252-3.346 1.86-1.185zm-.877-8.28l2.393-1.553-2.425-1.574L5.28 7.37 7.77 8.98zm1.84 1.19L12 11.719l2.39-1.547L12 8.619l-2.391 1.552zm4.231 2.74l2.424 1.568 2.45-1.502-2.485-1.612-2.389 1.545zM12 6.234l4.237-2.748L22.46 7.33l-4.392 2.843 4.393 2.85-6.226 3.819L12 14.1l-4.235 2.74-6.23-3.817 4.396-2.851L1.539 7.33l6.224-3.843L12 6.235zm1.837 1.192L16.23 8.98l2.489-1.61-2.456-1.517-2.426 1.574zM10.16 12.91l-2.39-1.546-2.486 1.613 2.451 1.502 2.425-1.569z"/>
    </g>
</svg>
